flags/in-tg.svg

<svg xmlns="http://www.w3.org/2000/svg" width="512" height="512" fill="none"><path fill="var(--flag-palette-dark-green, #496e2d)" d="m0 384 256-64 256 64v128H0z"/><path fill="var(--flag-palette-gold, #ff9811)" d="m0 256 256-64 256 64v128H0z"/><path fill="var(--flag-palette-light-blue, #338af3)" d="m0 128 256-64 256 64v128H0z"/><path fill="var(--flag-palette-white, #eeeeee)" d="M0 0h512v128H0z"/></svg>

<svg width="512" height="512" viewBox="0 0 512 512" fill="none" xmlns="http://www.w3.org/2000/svg">
<path d="M0 384L256 320L512 384V512H0V384Z" fill="var(--flag-palette-dark-green, #496e2d)"/>
<path d="M0 256L256 192L512 256V384H0V256Z" fill="var(--flag-palette-gold, #ff9811)"/>
<path d="M0 128L256 64L512 128V256H0V128Z" fill="var(--flag-palette-light-blue, #338af3)"/>
<rect width="512" height="128" fill="var(--flag-palette-white, #eeeeee)"/>
</svg>
